src/assets/img/about_factory/target.svg

<svg width="100" height="105" viewBox="0 0 100 105" fill="none" xmlns="http://www.w3.org/2000/svg">
<g clip-path="url(#clip0)">
<path d="M61.1108 29.195C61.4922 29.5927 61.992 29.7914 62.4918 29.7914C62.9916 29.7914 63.4916 29.5927 63.8729 29.195C64.6356 28.3999 64.6356 27.1106 63.8729 26.3153L63.8465 26.2878C63.0838 25.4927 61.8471 25.4927 61.0842 26.2878C60.3215 27.0829 60.3215 28.3722 61.0842 29.1675L61.1108 29.195Z" fill="#626262"/>
<path d="M92.6203 48.4605L99.4279 41.3635C99.9865 40.7812 100.154 39.9052 99.8512 39.1445C99.5488 38.3836 98.8367 37.8876 98.0467 37.8876H83.9352C82.0906 30.0158 78.2193 22.843 72.6852 17.0734C64.6436 8.68952 53.9512 4.07233 42.5781 4.07233C31.2051 4.07233 20.5127 8.68952 12.4709 17.0734C4.42891 25.4573 0 36.604 0 48.4605C0 60.3171 4.42891 71.464 12.4709 79.8477C14.8623 82.3408 17.4895 84.4979 20.2979 86.3023L14.4137 97.1397C14.0715 97.7701 14.0762 98.5427 14.4262 99.1682C14.776 99.7941 15.4184 100.179 16.1133 100.179H26.1719C26.8756 100.179 27.525 99.7843 27.8717 99.1458L32.0322 91.4827C35.4375 92.3833 38.9734 92.8487 42.5781 92.8487C46.1828 92.8487 49.7188 92.3833 53.124 91.4827L57.2846 99.1458C57.6312 99.7843 58.2807 100.179 58.9844 100.179H69.043C69.7379 100.179 70.3803 99.7941 70.7303 99.1684C71.0803 98.5427 71.085 97.7701 70.7428 97.14L64.8586 86.3025C67.667 84.4979 70.2941 82.341 72.6855 79.8479C78.2176 74.0807 82.0908 66.9049 83.9352 59.0337H98.0469C98.8367 59.0337 99.549 58.5375 99.8514 57.7768C100.154 57.0161 99.9865 56.1401 99.4281 55.5578L92.6203 48.4605ZM89.049 46.4244H75.4184L79.7008 41.9599H93.3316L89.049 46.4244ZM25.033 96.1066H19.4631L23.7143 88.277C25.1732 89.0299 26.6711 89.696 28.2035 90.2673L25.033 96.1066ZM65.6932 96.1066H60.1232L56.9527 90.2673C58.4852 89.696 59.983 89.0299 61.442 88.277L65.6932 96.1066ZM69.9232 76.9682C67.3432 79.6579 64.4615 81.9185 61.3596 83.7205C61.3213 83.7398 61.2826 83.7581 61.2449 83.7803C61.2213 83.7944 61.1998 83.8105 61.177 83.8253C58.7975 85.1899 56.29 86.2856 53.6883 87.0948C53.5859 87.116 53.4848 87.1473 53.385 87.1864C49.9174 88.2326 46.2881 88.7764 42.5781 88.7764C38.8682 88.7764 35.2389 88.2326 31.7713 87.1866C31.6713 87.1475 31.5701 87.1162 31.4676 87.095C28.866 86.2858 26.3586 85.1902 23.9793 83.8255C23.9564 83.8107 23.935 83.7946 23.9113 83.7805C23.8736 83.7583 23.8352 83.74 23.7969 83.7207C20.6949 81.9187 17.8133 79.6581 15.2332 76.9682C7.92891 69.3535 3.90625 59.2294 3.90625 48.4605C3.90625 37.6917 7.92891 27.5675 15.233 19.9529C22.5371 12.3383 32.2484 8.14464 42.5781 8.14464C52.9078 8.14464 62.6191 12.3383 69.9232 19.9529C74.7227 24.9564 78.1457 31.12 79.9033 37.8876H78.892C78.374 37.8876 77.8771 38.1022 77.5109 38.484L72.3271 43.8881C71.8041 40.1862 70.6561 36.5867 68.9225 33.3132C68.4012 32.3287 67.2129 31.9715 66.2686 32.5148C65.3242 33.0582 64.9814 34.297 65.5027 35.2815C67.3568 38.7825 68.3926 42.5889 68.6576 46.4246H60.0459C59.6111 42.3001 57.8629 38.4793 55.0078 35.5028C51.6877 32.0414 47.2734 30.1351 42.5781 30.1351C37.8828 30.1351 33.4686 32.0414 30.1486 35.5024C26.8285 38.9639 25 43.5656 25 48.4605C25 53.3555 26.8285 57.9574 30.1484 61.4184C33.4686 64.8797 37.8828 66.7859 42.5781 66.7859C47.2734 66.7859 51.6877 64.8797 55.0076 61.4186C57.8627 58.4422 59.6109 54.6213 60.0457 50.4967H68.649C68.1832 56.8617 65.6068 63.0386 61.0844 67.7535C56.1412 72.907 49.5687 75.745 42.5781 75.745C35.5875 75.745 29.015 72.907 24.0719 67.7535C19.1285 62.6002 16.4062 55.7486 16.4062 48.4605C16.4062 41.1725 19.1285 34.3209 24.0719 29.1675C32.2715 20.6194 45.0801 18.7253 55.2199 24.5616C56.1641 25.1048 57.3523 24.7477 57.8738 23.7632C58.3951 22.7787 58.0523 21.5401 57.108 20.9965C51.5133 17.7763 44.9256 16.4929 38.559 17.3835C31.9799 18.3034 26.015 21.3825 21.3098 26.288C15.6287 32.2106 12.5 40.0848 12.5 48.4605C12.5 56.8363 15.6287 64.7107 21.3096 70.6331C26.9906 76.5556 34.5439 79.8174 42.5781 79.8174C50.6123 79.8174 58.1656 76.5556 63.8465 70.6333C68.4627 65.821 71.3912 59.7449 72.334 53.0405L77.5107 58.4373C77.877 58.8191 78.3738 59.0337 78.8918 59.0337H79.9027C78.1451 65.8009 74.7207 71.9667 69.9232 76.9682ZM48.957 44.6212C48.4178 43.6471 47.2232 43.3135 46.2891 43.8759L41.6016 46.6972C40.9973 47.0609 40.625 47.733 40.625 48.4605C40.625 49.1881 40.9973 49.8602 41.6016 50.2239L46.2891 53.0451C46.5967 53.2302 46.9324 53.3182 47.2639 53.3182C47.9389 53.3182 48.5953 52.9531 48.957 52.2999C49.274 51.7278 49.2922 51.0625 49.0654 50.4967H56.1107C55.6969 53.5312 54.3615 56.3331 52.2455 58.5389C49.6633 61.2311 46.2301 62.7136 42.5781 62.7136C38.9262 62.7136 35.493 61.2311 32.9105 58.5389C30.3283 55.8469 28.9062 52.2677 28.9062 48.4605C28.9062 44.6533 30.3283 41.0742 32.9107 38.382C35.493 35.69 38.9262 34.2074 42.5781 34.2074C46.2301 34.2074 49.6633 35.69 52.2457 38.3822C54.3615 40.5879 55.6971 43.3899 56.1109 46.4244H49.0656C49.2922 45.8583 49.274 45.1933 48.957 44.6212ZM79.7008 54.9612L75.4184 50.4967H89.049L93.3316 54.9612H79.7008Z" fill="#626262"/>
</g>
<defs>
<clipPath id="clip0">
<rect width="100" height="104.251" fill="white"/>
</clipPath>
</defs>
</svg>

<svg width="100" height="105" fill="none" xmlns="http://www.w3.org/2000/svg"><g clip-path="url(#clip0)" fill="#626262"><path d="M61.11 29.195a1.9 1.9 0 002.762 0 2.098 2.098 0 000-2.88l-.026-.027a1.897 1.897 0 00-2.762 0 2.098 2.098 0 000 2.88l.027.027z"/><path d="M92.62 48.46l6.808-7.096a2.099 2.099 0 00.423-2.22c-.302-.76-1.014-1.256-1.804-1.256H83.935c-1.844-7.872-5.716-15.045-11.25-20.815-8.041-8.383-18.734-13-30.107-13-11.373 0-22.065 4.617-30.107 13C4.429 25.457 0 36.604 0 48.461c0 11.856 4.429 23.003 12.47 31.387a43.212 43.212 0 007.828 6.454L14.414 97.14a2.111 2.111 0 00.012 2.028c.35.626.992 1.011 1.687 1.011h10.059c.704 0 1.353-.395 1.7-1.033l4.16-7.663c3.406.9 6.941 1.366 10.546 1.366 3.605 0 7.14-.466 10.546-1.366l4.16 7.663a1.941 1.941 0 001.7 1.033h10.059a1.94 1.94 0 001.687-1.01c.35-.626.355-1.399.013-2.029l-5.884-10.838a43.22 43.22 0 007.827-6.454c5.532-5.767 9.405-12.943 11.25-20.814h14.11c.79 0 1.503-.496 1.805-1.257a2.1 2.1 0 00-.423-2.22l-6.808-7.096zm-3.571-2.036h-13.63L79.7 41.96h13.63l-4.282 4.464zM25.033 96.107h-5.57l4.251-7.83a41.088 41.088 0 004.49 1.99l-3.171 5.84zm40.66 0h-5.57l-3.17-5.84a41.09 41.09 0 004.489-1.99l4.251 7.83zm4.23-19.139a39.045 39.045 0 01-8.563 6.752c-.039.02-.077.038-.115.06-.024.014-.045.03-.068.045a37.336 37.336 0 01-7.489 3.27 1.874 1.874 0 00-.303.091 37.358 37.358 0 01-10.807 1.59c-3.71 0-7.34-.543-10.807-1.59-.1-.039-.2-.07-.303-.091a37.325 37.325 0 01-7.489-3.27c-.023-.014-.044-.03-.068-.044-.037-.023-.076-.041-.114-.06a39.04 39.04 0 01-8.564-6.753C7.93 69.353 3.906 59.23 3.906 48.46c0-10.768 4.023-20.893 11.327-28.507 7.304-7.615 17.015-11.808 27.345-11.808 10.33 0 20.041 4.193 27.345 11.808 4.8 5.003 8.223 11.167 9.98 17.935h-1.011c-.518 0-1.015.214-1.381.596l-5.184 5.404c-.523-3.702-1.67-7.301-3.404-10.575-.522-.984-1.71-1.342-2.654-.798-.945.543-1.288 1.782-.766 2.767a27.897 27.897 0 013.155 11.143h-8.612c-.435-4.125-2.183-7.946-5.038-10.922-3.32-3.462-7.735-5.368-12.43-5.368-4.695 0-9.11 1.906-12.43 5.367C26.829 38.964 25 43.566 25 48.461s1.828 9.496 5.148 12.957c3.32 3.462 7.735 5.368 12.43 5.368 4.695 0 9.11-1.906 12.43-5.367 2.855-2.977 4.603-6.798 5.038-10.922h8.603c-.466 6.365-3.042 12.542-7.565 17.257-4.943 5.153-11.515 7.991-18.506 7.991-6.99 0-13.563-2.838-18.506-7.992-4.944-5.153-7.666-12.004-7.666-19.292 0-7.288 2.723-14.14 7.666-19.293 8.2-8.549 21.008-10.443 31.148-4.606.944.543 2.132.186 2.654-.799.521-.984.178-2.223-.766-2.767-5.595-3.22-12.182-4.503-18.549-3.612-6.58.92-12.544 3.998-17.25 8.904-5.68 5.923-8.809 13.797-8.809 22.173 0 8.375 3.129 16.25 8.81 22.172 5.68 5.923 13.234 9.184 21.268 9.184s15.588-3.261 21.268-9.184c4.617-4.812 7.545-10.888 8.488-17.592l5.177 5.396c.366.382.863.597 1.38.597h1.012c-1.758 6.767-5.182 12.933-9.98 17.934zM48.957 44.621c-.54-.974-1.734-1.308-2.668-.745l-4.687 2.821a2.053 2.053 0 00-.977 1.764c0 .727.372 1.4.977 1.763l4.687 2.821c.308.185.643.273.975.273.675 0 1.331-.365 1.693-1.018a2.107 2.107 0 00.108-1.803h7.046a14.373 14.373 0 01-3.865 8.042c-2.583 2.692-6.016 4.175-9.668 4.175-3.652 0-7.085-1.483-9.668-4.175-2.582-2.692-4.004-6.271-4.004-10.078 0-3.808 1.422-7.387 4.005-10.079 2.582-2.692 6.015-4.175 9.667-4.175s7.085 1.483 9.668 4.175a14.374 14.374 0 013.865 8.042h-7.045a2.107 2.107 0 00-.109-1.803zm30.744 10.34l-4.283-4.464H89.05l4.283 4.464H79.7z"/></g><defs><clipPath id="clip0"><path fill="#fff" d="M0 0h100v104.251H0z"/></clipPath></defs></svg>
